!!!COA: Josquin des Prez
!!!CDT: ~1450-1521/08/27
!!!OTL@@FRA: Madame helas / Dux Carlus
!!!AGN: Chanson
!!!SCT: NJE 27.24
!!!SCA: New Josquin Edition 27.24
!!!voices: 3
**kern	**kern	**kern
*staff3	*staff2	*staff1
*Ivox	*Ivox	*Ivox
*I"Contra	*I"Tenor	*I"Superius
*I'C	*I'T	*I'S
*clefF4	*clefGv2	*clefG2
*k[b-e-]	*k[b-e-]	*k[b-e-]
*M2/1	*M2/1	*M2/1
*met(C|)	*met(C|)	*met(C|)
=1-	=1-	=1-
0r	0F	0f
=2	=2	=2
0BB-	1F	0f
.	1F	.
=3	=3	=3
0BB-	[0B-	1f
.	.	1f
=4	=4	=4
1BB-	0B-]	1.b-
1BB-	.	.
.	.	2a/
=5	=5	=5
0E-	0B-	1g
.	.	1g
=6	=6	=6
0BB-	1B-	1f
.	1B-	1f
=7	=7	=7
1r	0d	2f/
.	.	1b-
1BB-	.	.
.	.	4a/
.	.	4g/
=8	=8	=8
0F;l	0c;l	0a;l
=9	=9	=9
0G	0B-	0b-
=10	=10	=10
0E-	0e-	1g
.	.	1b-
=11	=11	=11
1F	1c	2a/
.	.	4g/
.	.	4f/
2C/	1e-	1g
2E-\	.	.
=12	=12	=12
1BB-	2d\	2f/
.	4c\	1b-
.	4B-\	.
1F	1c	.
.	.	2a/
=13	=13	=13
0G	2B-\	0b-
.	1e-	.
.	2d\	.
=14	=14	=14
0E-	0e-	1b-
.	.	1g
=15	=15	=15
1.A-i	[0e-	1.cc
4G\	.	4b-\
4F\	.	4a/
=16	=16	=16
0E-	0e-]	0g
=17	=17	=17
0BB-	0d	1f
.	.	1b-
=18	=18	=18
1F	0c	1cc
1r	.	1ee-
=19	=19	=19
1G	1B-	1dd
[1A-i	[1e-	[1cc
=20	=20	=20
2A-\]	1e-]	2cc\]
2G\	.	2b-\
1B-	1d	[1b-
=21	=21	=21
0F	0c	2b-\]
.	.	4a/
.	.	4g/
.	.	1a
=22	=22	=22
1r	[0B-	0b-
[1G	.	.
=23	=23	=23
2G\]	0B-]	0r
2A\	.	.
1B-	.	.
=24	=24	=24
0E-	0e-	0g
=25	=25	=25
1E-	1e-	1g
1C	1e-	1g
=26	=26	=26
2D\	[0B-	2f/
1E-	.	1g
4D\	.	4f/
4C/	.	4e-/
=27	=27	=27
1.BB-	0B-]	1.d
2C/	.	2e-/
=28	=28	=28
1D	1F	1f
[1E-	[1B-	[1g
=29	=29	=29
1E-]	1B-]	2g/]
.	.	2f/
1F	1A	[1f
=30	=30	=30
0C	0G	2f/]
.	.	4eni/
.	.	4d/
.	.	1eni
=31	=31	=31
0D	0F	0f
=32	=32	=32
1r	0G	1r
1C	.	1e-
=33	=33	=33
0D	1r	0f
.	1F	.
=34	=34	=34
1r	0G	1r
1C	.	1e-
=35	=35	=35
1D	1F	1f
1E-	[1B-	[1g
=36	=36	=36
2BB-/	2B-\]	2g/]
2F\	2A/	2f/
[1E-	1B-	[1g
=37	=37	=37
2E-\]	[0c	2g/]
2D\	.	2f/
2C/	.	2e-/
2BB-/	.	2d/
=38	=38	=38
1AA-	0c]	1e-
1AA-i	.	1e-
=39	=39	=39
2.BB-/	0B-	2.d/
4C/	.	4e-/
2D\	.	2f/
2E-\	.	2g/
=40	=40	=40
2D\	0d	2f/
1BB-	.	1b-
2BB-/	.	4a/
.	.	4g/
=41	=41	=41
0F;	0c	0a;
=42	=42	=42
1F	0r	1f
2F\	.	2d/
[2G\	.	[2e-/
=43	=43	=43
4G\]	0r	4e-/]
4F\	.	4d/
4E-\	.	4c/
4D\	.	4B-/
1C	.	1A
=44	=44	=44
1BB-	1f	2B-/
.	.	2.f/
2BB-/	2d\	.
.	.	4e-/
[2E-\	[2e-\	[2g/
=45	=45	=45
2E-\]	4e-\]	4g/]
.	4d\	4f/
2E-\	4c\	4e-/
.	4B-\	4d/
1F	2.A/	1c
.	4G/	.
=46	=46	=46
0BB-	2B-\	0B-
.	2.f\	.
.	4e-\	.
.	[2g\	.
=47	=47	=47
2r	4g\]	2r
.	4f\	.
2D\	4e-\	2f/
.	4d\	.
2E-\	1c	2g/
2F\	.	2a/
=48	=48	=48
1G	1B-	1.b-
1E-	1e-	.
.	.	2g/
=49	=49	=49
2F\	2c\	2a/
2D\	2d\	2b-\
2C/	2e-\	1cc
[2F\	[2f\	.
=50	=50	=50
2F\]	2f\]	1f
2D\	1B-	.
1E-	.	1b-
.	[2e-\	.
=51	=51	=51
2E-\	2e-\]	2g/
2.F\	1c	1a
4E-\	.	.
2F\	4B-\	4g/
.	4A/	4f/
=52	=52	=52
2C/	2G/	2e-/
2D\	2F/	1f
1C	1G	.
.	.	2eni/
=53	=53	=53
2r	2F/	0f
2D\	2.B-\	.
2BB-/	.	.
.	4G/	.
[2E-\	[2c\	.
=54	=54	=54
4E-\]	4c\]	0r
4D\	4B-\	.
4C/	4A/	.
4BB-/	4G/	.
1C	1A	.
=55	=55	=55
1BB-	1B-	0f
2.B-\	2r	.
.	2B-\	.
4A\	.	.
=56	=56	=56
1G	2d\	1g
.	2e-\	.
1F	1f	1a
=57	=57	=57
2r	1B-	1.b-
1G	.	.
.	[1e-	.
2E-\	.	2g/
=58	=58	=58
1E-	2e-\]	1g
.	2c\	.
1A-i	1c	[1cc
=59	=59	=59
1.F	1.f	2cc\]
.	.	2b-\
.	.	2a/
4G\	2e-\	2g/
4A\	.	.
=60	=60	=60
2B-\	2d\	1f
2A\	2c\	.
2G\	1B-	1b-
2F\	.	.
=61	=61	=61
1E-	1e-	1cc
1D	[1f	[1dd
=62	=62	=62
1BB-	2f\]	2dd\]
.	2d\	2b-\
1r	[1g	[1ee-
=63	=63	=63
1r	2g\]	2ee-\]
.	2f\	2dd\
1B-	2e-\	[1dd
.	2d\	.
=64	=64	=64
1G	1e-	1dd]
1A	1e-	1cc
=65	=65	=65
0B-	0d	0dd
=66	=66	=66
1r	0e-	1r
1A	.	1cc
=67	=67	=67
0B-	1r	0dd
.	1d	.
=68	=68	=68
1r	0e-	1r
1A	.	1cc
=69	=69	=69
1.B-	1r	1.dd
.	1d	.
2B-\	.	2dd\
=70	=70	=70
1B-	1.f	1.dd
2B-\	.	.
2A\	2f\	2cc\
=71	=71	=71
2B-\	1f	2dd\
2A\	.	2cc\
1B-	2B-\	1dd
.	[2f\	.
=72	=72	=72
2A\	2f\]	2cc\
1B-	2d\	1dd
.	2e-\	.
4A\	[2f\	4cc\
4G\	.	4b-\
=73	=73	=73
2F\	2f\]	2a/
2G\	4e-\	1b-
.	4d\	.
1F	1c	.
.	.	2a/
=74	=74	=74
0BB-l	0B-l	0b-l
==	==	==
*-	*-	*-
!!!RDF**kern: l=long note in original notation
!!!RDF**kern: i=editorial accidental
!!!ENC: Jesse Rodin; Victoria Chang 2011/05/30/
!!!END: 2011/05/30/
!!!EED: Jesse Rodin
!!!EEV: 2011/08/09/
!!attribution-level@Jos: 2 (slightly less secure)
!!!ONB: Translated from MusicXML and edited on 2011/08/09/ by Craig Sapp
!!muse2ps:  C^@{COM}{/}@{COA}?\n@{SCT}^v100,100,150I150Q16
